X:1
T: Delrachnie's Rant
C:Alexander Walker
R:Strathspey
Q: 128
K:G
M:4/4
L:1/16
|:D2|G3A B3G AAA2 A4|G3A B3G EEE2 E4|G3A B3G AAA2 g4|G3A G3D ED3 D2D2|
G3A B3G AAA2 A4|G3A B3G EEE2 E4|G3A B3G AAA2 g4|G3A G3D ED3 D2d2|
e3g d3g BG3 A3d|e3g B3g AG3 E4|e3g d3g B3G A3B|GA3 G3D ED3 D3d|
e3g d3g B3G A3d|e3g B3g AG3 E4|e3g d3g a3g a3b|g3a g3d ed3 d2:|
